;Generated by Cura LulzBot Edition GCodeWriter Version: 3.6.37
;FLAVOR:Marlin
;TIME:3685
;Filament used: 1.82048m
;Layer height: 0.25
;Generated with Cura_SteamEngine 3.6.37-win10
M82 ;absolute extrusion mode
;This G-Code has been generated specifically for the LulzBot Mini 2 with SE 0.5mm Tool Head
;
;The following lines can be uncommented for printer specific fine tuning
;More information can be found at https://marlinfw.org/meta/gcode/
;
;M92 E420                 ;Set Axis Steps-per-unit
;M301 P21.0 I1.78 D61.93  ;Set Hotend PID
;M906 E960                ;TMC Motor Current
;
M73 P0                  ; clear GLCD progress bar
M75 					; Start GLCD Print Timer
G26 					; clear potential 'probe fail' condition
M107 					; disable fans
M420 S0                 ; disable leveling matrix
G90 					; absolute positioning
M82 					; set extruder to absolute mode
G92 E0 					; set extruder position to 0
M140 S60.0 ; start bed heating up
G28 					; home all axes
G0 X0 Y187 Z156 F200 			; move away from endstops
M117 Mini 2 Wiping...			; progress indicator message on LCD
M109 R140 	; soften filament before retraction
G1 E-15 F75 				; retract filament
M109 R140                  ; wait for extruder to reach wiping temp
;M206 X0 Y0 Z0              ; uncomment to adjust wipe position (+X ~ nozzle moves left)(+Y ~ nozzle moves forward)(+Z ~ nozzle moves down)
G12                         ; wiping sequence
M206 X0 Y0 Z0               ; reseting stock nozzle position ### CAUTION: changing this line can affect print quality ###
G28 X0 Y0				; home X and Y
M109 R140	; wait for extruder to reach probe temp
M204 S300				; set probing acceleration
G29					; start auto-leveling sequence
M420 S1                     ; enable leveling matrix
M425 Z			     		; use measured Z backlash for compensation
M425 Z F0		     		; turn off measured Z backlash compensation. (if activated in the quality settings, this command will automatically be ignored)
M204 S2000				; restore standard acceleration
G1 X5 Y15 Z10 F5000			; move up off last probe point
G4 S1					; pause
M400					; wait for moves to finish
M117 Heating...				; progress indicator message on LCD
M109 R210 ; wait for extruder to reach initial printing temp
M190 R60.0 ; wait for bed to reach printing temp
G1 Z2 E0 F75				; prime tiny bit of filament into the nozzle
M117 Mini 2 Printing...		; progress indicator message on LCD

M221 S100 T0
G92 E0
G1 F600 E-1.75
;LAYER_COUNT:28
;LAYER:0
M425 F1.0
M107
G0 F2625 X52.117 Y41.471 Z0.425
;TYPE:SKIRT
G1 F600 E0
G1 F900 X52.524 Y40.967 E0.02158
G1 X52.99 Y40.517 E0.04316
G1 X53.507 Y40.127 E0.06473
G1 X54.069 Y39.805 E0.08631
G1 X54.666 Y39.554 E0.10788
G1 X55.29 Y39.378 E0.12947
G1 X55.93 Y39.281 E0.15104
G1 X56.398 Y39.26 E0.16664
G1 X105.604 Y39.26 E1.80571
G1 X106.251 Y39.3 E1.8273
G1 X106.887 Y39.419 E1.84886
G1 X107.504 Y39.616 E1.87043
G1 X108.093 Y39.887 E1.89203
G1 X108.643 Y40.229 E1.9136
G1 X109.147 Y40.636 E1.93518
G1 X109.597 Y41.102 E1.95676
G1 X109.986 Y41.619 E1.97831
G1 X110.309 Y42.181 E1.9999
G1 X110.56 Y42.778 E2.02148
G1 X110.736 Y43.402 E2.04307
G1 X110.833 Y44.042 E2.06463
G1 X110.854 Y44.51 E2.08024
G1 X110.855 Y117.105 E4.49841
G1 X110.815 Y117.751 E4.51997
G1 X110.696 Y118.388 E4.54155
G1 X110.499 Y119.005 E4.56313
G1 X110.228 Y119.594 E4.58472
G1 X109.886 Y120.144 E4.6063
G1 X109.479 Y120.648 E4.62788
G1 X109.013 Y121.098 E4.64945
G1 X108.496 Y121.487 E4.67101
G1 X107.934 Y121.81 E4.6926
G1 X107.337 Y122.061 E4.71417
G1 X106.713 Y122.237 E4.73577
G1 X106.073 Y122.334 E4.75733
G1 X105.605 Y122.355 E4.77293
G1 X56.395 Y122.355 E6.41214
G1 X55.748 Y122.315 E6.43373
G1 X55.112 Y122.196 E6.45528
G1 X54.495 Y121.999 E6.47686
G1 X53.906 Y121.728 E6.49845
G1 X53.356 Y121.386 E6.52003
G1 X52.852 Y120.979 E6.54161
G1 X52.402 Y120.513 E6.56319
G1 X52.013 Y119.996 E6.58474
G1 X51.69 Y119.434 E6.60633
G1 X51.439 Y118.837 E6.6279
G1 X51.263 Y118.213 E6.6495
G1 X51.166 Y117.573 E6.67106
G1 X51.145 Y117.105 E6.68667
G1 X51.148 Y44.51 E9.10483
G1 X51.188 Y43.863 E9.12642
G1 X51.307 Y43.227 E9.14798
G1 X51.504 Y42.609 E9.16958
G1 X51.775 Y42.021 E9.19115
G1 X52.117 Y41.471 E9.21272
G0 F2625 X52.614 Y41.639
G1 F900 X53.017 Y41.173 E9.23325
G1 X53.478 Y40.764 E9.25377
G1 X53.987 Y40.417 E9.27429
G1 X54.537 Y40.14 E9.29481
G1 X55.118 Y39.936 E9.31532
G1 X55.721 Y39.808 E9.33585
G1 X56.398 Y39.76 E9.35846
G1 X105.604 Y39.76 E10.99753
G1 X106.219 Y39.8 E11.01806
G1 X106.823 Y39.919 E11.03857
G1 X107.407 Y40.116 E11.0591
G1 X107.961 Y40.386 E11.07963
G1 X108.475 Y40.726 E11.10015
G1 X108.941 Y41.129 E11.12068
G1 X109.35 Y41.589 E11.14118
G1 X109.697 Y42.099 E11.16173
G1 X109.974 Y42.649 E11.18224
G1 X110.178 Y43.23 E11.20275
G1 X110.306 Y43.833 E11.22329
G1 X110.354 Y44.51 E11.24589
G1 X110.355 Y117.105 E13.66406
G1 X110.315 Y117.72 E13.68459
G1 X110.196 Y118.324 E13.70509
G1 X109.999 Y118.908 E13.72562
G1 X109.729 Y119.462 E13.74615
G1 X109.389 Y119.976 E13.76668
G1 X108.986 Y120.441 E13.78718
G1 X108.526 Y120.851 E13.8077
G1 X108.016 Y121.198 E13.82825
G1 X107.466 Y121.475 E13.84876
G1 X106.885 Y121.679 E13.86928
G1 X106.282 Y121.807 E13.88981
G1 X105.605 Y121.855 E13.91242
G1 X56.395 Y121.855 E15.55162
G1 X55.78 Y121.815 E15.57215
G1 X55.176 Y121.696 E15.59266
G1 X54.592 Y121.499 E15.61319
G1 X54.038 Y121.229 E15.63372
G1 X53.524 Y120.889 E15.65424
G1 X53.058 Y120.486 E15.67477
G1 X52.649 Y120.026 E15.69527
G1 X52.302 Y119.516 E15.71582
G1 X52.025 Y118.966 E15.73633
G1 X51.821 Y118.385 E15.75684
G1 X51.693 Y117.782 E15.77738
G1 X51.645 Y117.105 E15.79998
G1 X51.648 Y44.51 E18.21815
G1 X51.688 Y43.895 E18.23868
G1 X51.807 Y43.291 E18.25918
G1 X52.004 Y42.707 E18.27971
G1 X52.274 Y42.153 E18.30024
G1 X52.614 Y41.639 E18.32077
G0 F2625 X52.772 Y42.292
G1 F900 X53.11 Y41.817 E18.34019
G1 X53.509 Y41.393 E18.35958
G1 X53.963 Y41.027 E18.37901
G1 X54.462 Y40.727 E18.3984
G1 X54.998 Y40.497 E18.41783
G1 X55.56 Y40.343 E18.43724
G1 X56.398 Y40.26 E18.46529
G1 X105.604 Y40.26 E20.10436
G1 X106.185 Y40.3 E20.12376
G1 X106.756 Y40.419 E20.14319
G1 X107.305 Y40.615 E20.16261
G1 X107.821 Y40.884 E20.18199
G1 X108.297 Y41.222 E20.20144
G1 X108.721 Y41.621 E20.22083
G1 X109.087 Y42.075 E20.24026
G1 X109.387 Y42.574 E20.25965
G1 X109.617 Y43.11 E20.27908
G1 X109.771 Y43.672 E20.29849
G1 X109.854 Y44.51 E20.32654
G1 X109.855 Y117.105 E22.74471
G1 X109.815 Y117.686 E22.76411
G1 X109.696 Y118.257 E22.78354
G1 X109.5 Y118.806 E22.80296
G1 X109.231 Y119.322 E22.82234
G1 X108.893 Y119.798 E22.84179
G1 X108.494 Y120.222 E22.86118
G1 X108.04 Y120.588 E22.8806
G1 X107.541 Y120.888 E22.9
G1 X107.005 Y121.118 E22.91943
G1 X106.443 Y121.272 E22.93884
G1 X105.605 Y121.355 E22.96689
G1 X56.395 Y121.355 E24.60609
G1 X55.814 Y121.315 E24.62549
G1 X55.243 Y121.196 E24.64492
G1 X54.694 Y121 E24.66434
G1 X54.178 Y120.731 E24.68372
G1 X53.702 Y120.393 E24.70317
G1 X53.278 Y119.994 E24.72256
G1 X52.912 Y119.54 E24.74199
G1 X52.612 Y119.041 E24.76138
G1 X52.382 Y118.505 E24.78081
G1 X52.228 Y117.943 E24.80022
G1 X52.145 Y117.105 E24.82827
G1 X52.148 Y44.51 E27.24644
G1 X52.188 Y43.928 E27.26587
G1 X52.307 Y43.358 E27.28527
G1 X52.503 Y42.809 E27.30468
G1 X52.772 Y42.292 E27.3241
G0 F2625 X53.27 Y42.441
G1 F900 X53.605 Y42.008 E27.34233
G1 X53.999 Y41.628 E27.36057
G1 X54.444 Y41.309 E27.3788
G1 X54.931 Y41.059 E27.39704
G1 X55.449 Y40.882 E27.41527
G1 X55.987 Y40.783 E27.4335
G1 X56.398 Y40.76 E27.44721
G1 X105.604 Y40.76 E29.08628
G1 X106.15 Y40.8 E29.10451
G1 X106.684 Y40.919 E29.12274
G1 X107.195 Y41.114 E29.14096
G1 X107.673 Y41.382 E29.15921
G1 X108.106 Y41.717 E29.17745
G1 X108.486 Y42.111 E29.19568
G1 X108.805 Y42.556 E29.21392
G1 X109.055 Y43.043 E29.23215
G1 X109.232 Y43.561 E29.25039
G1 X109.331 Y44.099 E29.26861
G1 X109.354 Y44.51 E29.28232
G1 X109.355 Y117.105 E31.70049
G1 X109.315 Y117.651 E31.71872
G1 X109.196 Y118.185 E31.73695
G1 X109.001 Y118.696 E31.75517
G1 X108.733 Y119.174 E31.77342
G1 X108.398 Y119.607 E31.79166
G1 X108.004 Y119.987 E31.80989
G1 X107.559 Y120.306 E31.82813
G1 X107.072 Y120.556 E31.84636
G1 X106.554 Y120.733 E31.8646
G1 X106.016 Y120.832 E31.88282
G1 X105.605 Y120.855 E31.89653
G1 X56.395 Y120.855 E33.53573
G1 X55.849 Y120.815 E33.55397
G1 X55.315 Y120.696 E33.57219
G1 X54.804 Y120.501 E33.59041
G1 X54.326 Y120.233 E33.60867
G1 X53.893 Y119.898 E33.6269
G1 X53.513 Y119.504 E33.64514
G1 X53.194 Y119.059 E33.66338
G1 X52.944 Y118.572 E33.68161
G1 X52.767 Y118.054 E33.69984
G1 X52.668 Y117.516 E33.71807
G1 X52.645 Y117.105 E33.73178
G1 X52.648 Y44.51 E36.14994
G1 X52.688 Y43.964 E36.16818
G1 X52.807 Y43.43 E36.1864
G1 X53.002 Y42.918 E36.20465
G1 X53.27 Y42.441 E36.22288
G0 F2625 X53.768 Y42.601
G1 F900 X54.098 Y42.213 E36.23985
G1 X54.485 Y41.882 E36.25681
G1 X54.92 Y41.616 E36.27379
G1 X55.39 Y41.42 E36.29076
G1 X55.885 Y41.301 E36.30772
G1 X56.398 Y41.26 E36.32486
G1 X105.604 Y41.26 E37.96393
G1 X106.112 Y41.3 E37.9809
G1 X106.607 Y41.419 E37.99786
G1 X107.078 Y41.614 E38.01484
G1 X107.513 Y41.88 E38.03183
G1 X107.9 Y42.21 E38.04877
G1 X108.232 Y42.597 E38.06575
G1 X108.498 Y43.032 E38.08274
G1 X108.694 Y43.502 E38.0997
G1 X108.813 Y43.997 E38.11666
G1 X108.854 Y44.51 E38.1338
G1 X108.855 Y117.105 E40.55197
G1 X108.815 Y117.613 E40.56894
G1 X108.696 Y118.108 E40.5859
G1 X108.501 Y118.579 E40.60288
G1 X108.235 Y119.014 E40.61986
G1 X107.905 Y119.401 E40.6368
G1 X107.518 Y119.733 E40.65379
G1 X107.083 Y119.999 E40.67077
G1 X106.613 Y120.195 E40.68774
G1 X106.118 Y120.314 E40.70469
G1 X105.605 Y120.355 E40.72184
G1 X56.395 Y120.355 E42.36104
G1 X55.887 Y120.315 E42.37801
G1 X55.392 Y120.196 E42.39497
G1 X54.921 Y120.001 E42.41195
G1 X54.486 Y119.735 E42.42894
G1 X54.099 Y119.405 E42.44588
G1 X53.767 Y119.018 E42.46286
G1 X53.501 Y118.583 E42.47985
G1 X53.305 Y118.113 E42.49681
G1 X53.186 Y117.618 E42.51377
G1 X53.145 Y117.105 E42.53091
G1 X53.148 Y44.51 E44.94908
G1 X53.188 Y44.002 E44.96605
G1 X53.307 Y43.506 E44.98304
G1 X53.502 Y43.036 E44.99999
G1 X53.768 Y42.601 E45.01698
G1 F600 E43.26698
G0 F2625 X55.76 Y44.515
G0 X55.792 Y44.545
G0 X59.025 Y47.65
G0 X59.056 Y47.68
G0 X59.866 Y48.457
;TYPE:SUPPORT
G1 F600 E45.01698
G1 F900 X60.007 Y48.319 E45.02355
G1 X60.172 Y48.186 E45.03061
G1 X60.342 Y48.073 E45.03741
G1 X60.524 Y47.975 E45.04429
G1 X60.741 Y47.884 E45.05213
G1 X60.918 Y47.828 E45.05832
G1 X61.135 Y47.782 E45.0657
G1 X61.337 Y47.758 E45.07248
G1 X61.572 Y47.752 E45.08031
G1 X61.746 Y47.765 E45.08612
G1 X61.976 Y47.803 E45.09389
G1 X62.17 Y47.853 E45.10056
G1 X62.378 Y47.931 E45.10796
G1 X62.568 Y48.02 E45.11495
G1 X62.738 Y48.123 E45.12157
G1 X62.91 Y48.249 E45.12867
G1 X63.066 Y48.388 E45.13563
G1 X63.226 Y48.559 E45.14343
G1 X63.341 Y48.709 E45.14973
G1 X63.457 Y48.893 E45.15698
G1 X63.542 Y49.062 E45.16328
G1 X63.635 Y49.297 E45.1717
G1 X63.683 Y49.463 E45.17745
G1 X63.726 Y49.691 E45.18518
G1 X63.746 Y49.898 E45.19211
G1 X63.746 Y50.102 E45.1989
G1 X63.726 Y50.309 E45.20583
G1 X63.684 Y50.534 E45.21345
G1 X63.63 Y50.721 E45.21994
G1 X63.548 Y50.927 E45.22732
G1 X63.461 Y51.101 E45.2338
G1 X63.341 Y51.291 E45.24129
G1 X63.226 Y51.441 E45.24759
G1 X63.066 Y51.612 E45.25539
G1 X62.91 Y51.751 E45.26235
G1 X62.738 Y51.877 E45.26945
G1 X62.568 Y51.98 E45.27607
G1 X62.378 Y52.069 E45.28306
G1 X62.17 Y52.147 E45.29046
G1 X61.976 Y52.197 E45.29713
G1 X61.746 Y52.235 E45.3049
G1 X61.572 Y52.248 E45.31071
G1 X61.337 Y52.242 E45.31854
G1 X61.135 Y52.218 E45.32532
G1 X60.91 Y52.171 E45.33297
G1 X60.749 Y52.12 E45.3386
G1 X60.522 Y52.024 E45.34681
G1 X60.342 Y51.927 E45.35362
G1 X60.172 Y51.814 E45.36042
G1 X60.007 Y51.681 E45.36748
G1 X59.857 Y51.535 E45.37445
G1 X59.715 Y51.367 E45.38178
G1 X59.605 Y51.209 E45.38819
G1 X59.487 Y50.999 E45.39621
G1 X59.411 Y50.831 E45.40236
G1 X59.336 Y50.612 E45.41007
G1 X59.293 Y50.428 E45.41636
G1 X59.262 Y50.21 E45.4237
G1 X59.252 Y50 E45.4307
G1 X59.262 Y49.786 E45.43784
G1 X59.293 Y49.572 E45.44504
G1 X59.336 Y49.388 E45.45133
G1 X59.412 Y49.165 E45.45918
G1 X59.487 Y49.001 E45.46519
G1 X59.605 Y48.791 E45.47321
G1 X59.709 Y48.641 E45.47929
G1 X59.866 Y48.457 E45.48735
G0 F2625 X60.012 Y48.594
G1 F900 X60.012 Y51.407 E45.58105
G0 F2625 X60.327 Y51.677
G1 F900 X62.671 Y51.677 E45.65913
G0 F2625 X63.346 Y50.884
G1 F900 X63.346 Y49.116 E45.71802
G0 F2625 X62.702 Y48.343
G1 F900 X60.295 Y48.343 E45.7982
G0 F2625 X61.679 Y47.961
G1 F900 X61.679 Y52.04 E45.93407
G0 F2625 X63.546 Y50.01
G1 F900 X59.453 Y50.01 E46.07041
G1 F600 E44.32041
G0 F2625 X64.866 Y50.008
G0 X64.91 Y50.008
G0 X97.085 Y49.999
G0 X97.129 Y49.999
G0 X98.252 Y50
G1 F600 E46.07041
G1 F900 X98.262 Y49.786 E46.07755
G1 X98.293 Y49.572 E46.08475
G1 X98.336 Y49.388 E46.09105
G1 X98.412 Y49.165 E46.09889
G1 X98.487 Y49.001 E46.1049
G1 X98.605 Y48.791 E46.11292
G1 X98.709 Y48.641 E46.119
G1 X98.866 Y48.457 E46.12706
G1 X99.007 Y48.319 E46.13363
G1 X99.172 Y48.186 E46.14069
G1 X99.342 Y48.073 E46.14749
G1 X99.524 Y47.975 E46.15438
G1 X99.741 Y47.884 E46.16222
G1 X99.918 Y47.828 E46.1684
G1 X100.135 Y47.782 E46.17579
G1 X100.337 Y47.758 E46.18257
G1 X100.572 Y47.752 E46.1904
G1 X100.746 Y47.765 E46.19621
G1 X100.976 Y47.803 E46.20397
G1 X101.17 Y47.853 E46.21065
G1 X101.378 Y47.931 E46.21805
G1 X101.568 Y48.02 E46.22504
G1 X101.738 Y48.123 E46.23166
G1 X101.91 Y48.249 E46.23876
G1 X102.066 Y48.388 E46.24572
G1 X102.226 Y48.559 E46.25352
G1 X102.341 Y48.709 E46.25982
G1 X102.457 Y48.893 E46.26706
G1 X102.542 Y49.062 E46.27336
G1 X102.635 Y49.297 E46.28178
G1 X102.683 Y49.463 E46.28754
G1 X102.726 Y49.691 E46.29527
G1 X102.746 Y49.898 E46.30219
G1 X102.746 Y50.102 E46.30899
G1 X102.726 Y50.309 E46.31592
G1 X102.684 Y50.534 E46.32354
G1 X102.63 Y50.721 E46.33002
G1 X102.548 Y50.927 E46.33741
G1 X102.461 Y51.101 E46.34389
G1 X102.341 Y51.291 E46.35137
G1 X102.226 Y51.441 E46.35767
G1 X102.066 Y51.612 E46.36547
G1 X101.91 Y51.751 E46.37243
G1 X101.738 Y51.877 E46.37953
G1 X101.568 Y51.98 E46.38615
G1 X101.378 Y52.069 E46.39314
G1 X101.17 Y52.147 E46.40054
G1 X100.976 Y52.197 E46.40722
G1 X100.746 Y52.235 E46.41498
G1 X100.572 Y52.248 E46.42079
G1 X100.337 Y52.242 E46.42862
G1 X100.135 Y52.218 E46.4354
G1 X99.91 Y52.171 E46.44306
G1 X99.749 Y52.12 E46.44868
G1 X99.522 Y52.024 E46.45689
G1 X99.342 Y51.927 E46.4637
G1 X99.172 Y51.814 E46.4705
G1 X99.007 Y51.681 E46.47756
G1 X98.857 Y51.535 E46.48454
G1 X98.715 Y51.367 E46.49186
G1 X98.605 Y51.209 E46.49828
G1 X98.487 Y50.999 E46.5063
G1 X98.411 Y50.831 E46.51244
G1 X98.336 Y50.612 E46.52015
G1 X98.293 Y50.428 E46.52645
G1 X98.262 Y50.21 E46.53378
G1 X98.252 Y50 E46.54078
G0 F2625 X98.453 Y50.01
G1 F900 X102.546 Y50.01 E46.67712
G0 F2625 X101.687 Y51.667
G1 F900 X101.687 Y48.334 E46.78815
G0 F2625 X101.702 Y48.343
G1 F900 X99.295 Y48.343 E46.86833
G0 F2625 X100.02 Y48.011
G1 F900 X100.02 Y51.988 E47.0008
G0 F2625 X99.327 Y51.677
G1 F900 X101.671 Y51.677 E47.07888
G1 F600 E45.32888
G0 F2625 X101.641 Y53.166
G0 X101.641 Y53.21
G0 X100.593 Y108.586
G0 X100.593 Y108.63
G0 X100.572 Y109.752
G1 F600 E47.07888
G1 F900 X100.746 Y109.765 E47.08469
G1 X100.976 Y109.803 E47.09246
G1 X101.17 Y109.853 E47.09913
G1 X101.378 Y109.931 E47.10653
G1 X101.568 Y110.02 E47.11352
G1 X101.738 Y110.123 E47.12014
G1 X101.91 Y110.249 E47.12724
G1 X102.066 Y110.388 E47.1342
G1 X102.226 Y110.559 E47.142
G1 X102.341 Y110.709 E47.1483
G1 X102.457 Y110.893 E47.15554
G1 X102.542 Y111.062 E47.16185
G1 X102.635 Y111.297 E47.17026
G1 X102.683 Y111.463 E47.17602
G1 X102.726 Y111.691 E47.18375
G1 X102.746 Y111.898 E47.19068
G1 X102.746 Y112.102 E47.19747
G1 X102.726 Y112.309 E47.2044
G1 X102.684 Y112.534 E47.21202
G1 X102.63 Y112.721 E47.21851
G1 X102.548 Y112.927 E47.22589
G1 X102.461 Y113.101 E47.23237
G1 X102.341 Y113.291 E47.23986
G1 X102.226 Y113.441 E47.24615
G1 X102.066 Y113.612 E47.25396
G1 X101.91 Y113.751 E47.26092
G1 X101.738 Y113.877 E47.26802
G1 X101.568 Y113.98 E47.27464
G1 X101.378 Y114.069 E47.28163
G1 X101.17 Y114.147 E47.28903
G1 X100.976 Y114.197 E47.2957
G1 X100.746 Y114.235 E47.30347
G1 X100.572 Y114.248 E47.30928
G1 X100.337 Y114.242 E47.31711
G1 X100.135 Y114.218 E47.32388
G1 X99.91 Y114.171 E47.33154
